src/pos-icons/message-bulleted-off.svg

<svg height="24" viewBox="0 0 24 24" width="24" xmlns="http://www.w3.org/2000/svg"><path d="m1.27 1.73-1.27 1.27 2 2v17l4-4h9l5.73 5.73 1.27-1.27zm6.73 12.27h-2v-2h2zm-2-3v-2l2 2zm14-9h-15.92l5.92 5.92v-1.92h8v2h-7.92l1 1h6.92v2h-4.92l6.99 7c1.07-.05 1.93-.92 1.93-2v-12a2 2 0 0 0 -2-2z"/></svg>

<?xml version="1.0" encoding="UTF-8"?><!DOCTYPE svg PUBLIC "-//W3C//DTD SVG 1.1//EN" "http://www.w3.org/Graphics/SVG/1.1/DTD/svg11.dtd"><svg xmlns="http://www.w3.org/2000/svg" xmlns:xlink="http://www.w3.org/1999/xlink" version="1.1" id="mdi-message-bulleted-off" width="24" height="24" viewBox="0 0 24 24"><path d="M1.27,1.73L0,3L2,5V22L6,18H15L20.73,23.73L22,22.46L1.27,1.73M8,14H6V12H8V14M6,11V9L8,11H6M20,2H4.08L10,7.92V6H18V8H10.08L11.08,9H18V11H13.08L20.07,18C21.14,17.95 22,17.08 22,16V4A2,2 0 0,0 20,2Z" /></svg>
